X:1
T:The Wherefore and the Why
T:The Wherefore and the Why
T:Zella M. Hall, 1920
T:Ruth Inge Bjork, 1910
T:Public Domain Courtesy of the Cyber Hymnal™
T:Public Domain Courtesy of the Cyber Hymnal™
C:Zella M. Hall, 1920
Z:Public Domain
Z:Courtesy of the Cyber Hymnal™
%%score ( 1 2 ) ( 3 4 )
L:1/8
Q:1/4=92
M:4/4
K:F
V:1 treble 
V:2 treble 
V:3 bass 
V:4 bass 
V:1
 [FA][FB] | [Fc][Fc] [Fd]>[Fc] [FA]2 [FA][FA] | [EA][^CG][CF][CE] [DF]2 [DF][DF] | %3
w: 1.~What a|bless- èd thing to know, As thro’|life we on- ward go, That some|
w: 2.~If we’ve|strug- gled on in vain, And we’ve|suf- fered un- told pain, Mak- ing|
w: 3.~Tho’ our|loved ones have gone home, Leav- ing|us here all a- lone, And we|
w: 4.~Ah, our|heav’n- ly Fa- ther knows Ev- ery|lit- tle wind that blows, And He|
 [EG][EG]F[EG] [FA][Fc] [CA]>[CF] | [CG]6 [CA][CB] | [Cc][Fc] [Fd]>[Fc] [FA]2 [FA][FA] | %6
w: day we’ll know the where- fore and the|why; God will|wipe a- way all tears, Ban- ish|
w: life seem al- most more than we can|bear; Tho’ our|hearts are brok- en now, When be-|
w: feel that we, too, will- ing- ly would|die; We may|think God is un- just, But when|
w: knows just what is best for you and|I; H- e|sees the spar- row fall, He will|
 [DA][DG] [DB]>[DG] D2 [Fd][Fd] | [Fc][Fc][^FA][FA] [DB][DB][EA][EG] | F6 |] %9
w: all our doubts and fears, When we|go to dwell with Je- sus by and|by.|
w: fore God’s throne we bow, We shall|know the why and where- fore o- ver|there.|
w: we are “dust to dust,” We shall|un- der- stand the where- fore and the|why.|
w: guide us safe thro’ all, And some|day we’ll know the where- fore and the|why.|
V:2
 x2 | x8 | x8 | x2 F x5 | x8 | x8 | x4 D2 x2 | x8 | F6 |] %9
V:3
 [F,C][G,C] | [A,C][A,C] B,>[A,C] [F,C]2 [F,C][D,D] | %2
 [A,,^C][A,,A,][A,,A,][A,,A,] [D,A,]2 [D,A,][D,A,] | %3
 [C,B,][C,B,][D,A,][C,C] [F,C][F,A,] F,>[A,,F,] | [C,E,]6 F,[F,G,] | %5
 [F,A,][A,C] B,>[A,C] [F,C]2 [F,C][D,D] | [B,,D][B,,B,] [B,,G,]>[B,,G,] [B,,G,]2 [=B,,^G,][B,,G,] | %7
 [C,A,][C,A,][D,C][D,C] [G,B,][G,B,][C,C][C,B,] | [F,A,]6 |] %9
V:4
 x2 | x2 B,3/2 x9/2 | x8 | x6 F,3/2 x/ | x6 F, x | x2 B,3/2 x9/2 | x8 | x8 | x6 |] %9

